X: 128
T: No_62_Many_Spirits_Leading_Westward.krn
N: Derived from No_62_Many_Spirits_Leading_Westward.krn
%%abc-version 2.0
%%abcx-abcm2ps-target-version 5.9.1 (29 Sep 2008)
%%abc-creator hum2abc beta
%%abcx-conversion-date 2019/03/15 08:37:56
%%humdrum-veritas 2077236899
%%humdrum-veritas-data 837427290
%%linebreak <none>
%%barnumbers 0
L: 1/8
M: 3/4
K: Ab clef=bass
[K:clef=bass][M:3/4]C4(C3/A,/) | 
C4A,2 | 
G,A,-A,2(3CCA, | 
A,4G,2 ||  
[M:2/4]F,2A,3/A,/ | 
A,2A,G, | 
F,/F,/F,3//D,//F,2 ||  
[M:3/4]A,4G,2 ||  
[M:2/4]F,3/F,/ F,3/D,/ | 
F,2G,3/F,/ | 
F,2F,D, ||  
[M:3/4]F,3/F,/ F,/F,3/F,2 ||  
[M:2/4]F,3/F,/F,2 | 
F,4- | 
F,2z2 :|]  



